src/status/22/optimus-indicator-nvidia.svg

<svg width="22" height="22" version="1.1" xmlns="http://www.w3.org/2000/svg">
 <defs>
  <style id="current-color-scheme" type="text/css">
   .ColorScheme-Text { color:#363636; } .ColorScheme-Highlight { color:#5294e2; }
  </style>
 </defs>
 <path d="m2.2478 9.3581s1.7804-2.9568 5.7519-3.2626v-1.0727c-4.399 0.35596-7.9997 4.1096-7.9997 4.1096s1.949 6.2839 7.9997 6.8592v-1.1402c-4.4403-0.56283-5.7519-5.4934-5.7519-5.4934zm5.7519 3.2257v1.0443c-3.3559-0.6028-4.0788-4.1174-4.0788-4.1174s1.4026-1.7984 4.0788-2.09v1.1458c-0.00183 0-0.0033-5.867e-4 -0.00513-5.867e-4 -1.4043-0.16984-2.2931 1.1521-2.2931 1.1521s0.40641 2.2257 2.2983 2.8659m-3.4e-6 -9.5837v2.0227c0.12921-0.0099 0.25835-0.018333 0.38823-0.022733 5.0013-0.16991 8.4685 4.1323 8.4685 4.1323s-3.9513 4.5851-7.8507 4.5851c-0.35713 0-0.69168-0.03344-1.0061-0.08947v1.2234c0.26891 0.03447 0.54758 0.05463 0.8382 0.05463 3.6285 0 6.461-1.8671 9.002-4.0766 0.42115 0.3399 2.1457 1.1667 2.5004 1.5288-2.4159 2.0377-8.2548 3.6804-11.447 3.6804-0.30763 0-0.60309-0.01885-0.89357-0.04693v2.0084h14v-15h-14zm0 4.4206v-1.325c0.12789-0.00902 0.25667-0.015987 0.38823-0.020167 3.5963-0.11381 6.1645 3.1137 6.1645 3.1137s-2.7571 3.5658-5.4895 3.5658c-0.39329 0-0.7458-0.0638-1.0632-0.17123v-4.0173c1.4001 0.17043 1.8905 0.79347 2.7323 2.2071l1.8721-1.5903s-1.5752-1.8058-3.8788-1.8058c-0.25043 0-0.49001 0.0176-0.72527 0.04312" style="fill:currentColor" class="ColorScheme-Text"/>
</svg>

<svg width="22" height="22" xmlns="http://www.w3.org/2000/svg">
 <defs>
  <style id="current-color-scheme" type="text/css">
   .ColorScheme-Text { color:#ffffff; } .ColorScheme-Highlight { color:#4285f4; }
  </style>
 </defs>
<path d="M2.248 9.358S4.028 6.401 8 6.095V5.024c-4.4.356-8 4.11-8 4.11s1.949 6.283 8 6.859v-1.14c-4.44-.563-5.752-5.494-5.752-5.494zM8 12.584v1.044c-3.356-.603-4.08-4.117-4.08-4.117S5.324 7.712 8 7.42v1.145h-.005C6.59 8.396 5.7 9.718 5.7 9.718S6.108 11.944 8 12.584M8 3v2.023c.129-.01.258-.018.388-.023 5.001-.17 8.468 4.132 8.468 4.132s-3.95 4.586-7.85 4.586c-.357 0-.692-.034-1.006-.09v1.224c.269.034.547.054.838.054 3.628 0 6.46-1.867 9.002-4.076.421.34 2.146 1.166 2.5 1.528-2.416 2.038-8.255 3.68-11.447 3.68-.307 0-.603-.018-.893-.046V18h14V3H8zm0 4.42V6.097c.128-.01.256-.016.388-.02 3.596-.114 6.164 3.113 6.164 3.113s-2.757 3.566-5.489 3.566A3.29 3.29 0 018 12.584V8.567c1.4.17 1.89.793 2.732 2.207l1.872-1.59S11.03 7.377 8.725 7.377c-.25 0-.49.017-.725.043" class="ColorScheme-Text" fill="currentColor"/>
</svg>
